X: 1
T: Strathspey in Cyberspace
C: Wouter Joubert
R: strathspey
B: Anselm Lingnau "The Strathspey Anniversary Collection" 2011-5-11
Z: 2020 John Chambers <jc:trillian.mit.edu>
S: Written for Wouter's dance by the same name.
M: C
L: 1/8
K: Am
E |\
"Am"E>A A<c "C"e>d "E7"cB | "Am"A2 (3ABc "E7"B<^G GE | "Am"E>A A<c "Dm"e2 cd | "E7"e>c B<c "Am"A2 zE |
"Am"E>A A<c "C"e>d "E7"cB | "Dm"A2 (3ABc "E7"B<^G GE | "Am"E>A A<c "Dm"e2 cd | "E7"e>c B<c "Am"A2 z |]
e |\
"Am"a>e ec "E7"B<^G G<E | "Am"a>e cA "E7"B<e de | "Am"a>e ec "E7"B<^G G<E | "D7"A>c "E7"B<c "Am"A2 ze |
"Am"a>e ec "E7"B<^G G<E | "Am"a>e cA "E7"B<e de | "Am"a>e ec "E7"B<^G G<E | "F"A>c "E7"B<c "Am"A2 z |]
